icons/TriangleRight.svg

<svg width="24" height="24" viewBox="0 0 24 24" fill="none" xmlns="http://www.w3.org/2000/svg">
<path fill-rule="evenodd" clip-rule="evenodd" d="M17.223,12.2132c0.1586,-0.0976 0.1586,-0.3282 0,-0.4258l-10.09195,-6.21044c-0.16656,-0.10251 -0.38102,0.01733 -0.38102,0.21291v12.42083c0,0.1956 0.21446,0.3155 0.38102,0.213zM18.0092,10.5099c1.1104,0.6834 1.1104,2.2975 0,2.9808l-10.092,6.2104c-1.16597,0.7176 -2.66717,-0.1213 -2.66717,-1.4904v-12.42083c0,-1.36906 1.5012,-2.20792 2.66717,-1.4904z" fill="#002B51"/>
</svg>

<svg width="24" height="24" viewBox="0 0 24 24" fill="none" xmlns="http://www.w3.org/2000/svg">
<path fill-rule="evenodd" clip-rule="evenodd" d="M17.223 12.2132C17.3816 12.1156 17.3816 11.885 17.223 11.7874L7.13105 5.57696C6.96449 5.47445 6.75003 5.59429 6.75003 5.78987V18.2107C6.75003 18.4063 6.96449 18.5262 7.13105 18.4237L17.223 12.2132ZM18.0092 10.5099C19.1196 11.1933 19.1196 12.8074 18.0092 13.4907L7.9172 19.7011C6.75123 20.4187 5.25003 19.5798 5.25003 18.2107V5.78987C5.25003 4.42081 6.75123 3.58195 7.9172 4.29947L18.0092 10.5099Z" fill="#002B51"/>
</svg>
